svg/fluentui-system-icons/ic_fluent_walkie_talkie_24_filled.svg

<svg width="24" height="24" viewBox="0 0 24 24" fill="none" xmlns="http://www.w3.org/2000/svg">
<path d="M9.5 7.5V10.5H14.5V7.5H9.5ZM8.75 1C9.16421 1 9.5 1.33579 9.5 1.75V3H16.75C17.9926 3 19 4.00736 19 5.25V14C19 14.1885 18.929 14.3702 18.8011 14.5087L17.5 15.9182V19.75C17.5 20.9926 16.4926 22 15.25 22H8.75109C7.50845 22 6.50109 20.9926 6.50109 19.75V15.9184L5.19908 14.5089C5.07108 14.3703 5 14.1886 5 14V5.25C5 4.00736 6.00736 3 7.25 3H8V1.75C8 1.33579 8.33579 1 8.75 1ZM8 6.75V11.25C8 11.6642 8.33579 12 8.75 12H15.25C15.6642 12 16 11.6642 16 11.25V6.75C16 6.33579 15.6642 6 15.25 6H8.75C8.33579 6 8 6.33579 8 6.75ZM9.5 14.75C9.5 15.1642 9.83579 15.5 10.25 15.5H13.75C14.1642 15.5 14.5 15.1642 14.5 14.75C14.5 14.3358 14.1642 14 13.75 14H10.25C9.83579 14 9.5 14.3358 9.5 14.75Z" fill="#212121"/>
</svg>

<svg xmlns="http://www.w3.org/2000/svg" width="24" height="24"><path d="M9.5 7.5v3h5v-3h-5ZM8.75 1a.75.75 0 0 1 .75.75V3h7.25A2.25 2.25 0 0 1 19 5.25V14a.75.75 0 0 1-.199.509l-1.301 1.41v3.831A2.25 2.25 0 0 1 15.25 22H8.751a2.25 2.25 0 0 1-2.25-2.25v-3.832L5.2 14.508A.75.75 0 0 1 5 14V5.25A2.25 2.25 0 0 1 7.25 3H8V1.75A.75.75 0 0 1 8.75 1ZM8 6.75v4.5c0 .414.336.75.75.75h6.5a.75.75 0 0 0 .75-.75v-4.5a.75.75 0 0 0-.75-.75h-6.5a.75.75 0 0 0-.75.75Zm1.5 8c0 .414.336.75.75.75h3.5a.75.75 0 0 0 0-1.5h-3.5a.75.75 0 0 0-.75.75Z"/></svg>
